images/guest-list.svg

<svg xmlns="http://www.w3.org/2000/svg" width="200" height="200" viewBox="0 0 200 200"><style type="text/css">.st0{fill:#FFFFFF;stroke:#8B85B5;stroke-width:4.0924;stroke-miterlimit:10;}</style><circle class="st0" cx="55.1" cy="67.8" r="31.6"/><circle class="st0" cx="145.3" cy="67.8" r="31.6"/><circle class="st0" cx="101.9" cy="60.1" r="31.6"/><path class="st0" d="M82.3 126.6v44.4h-54.4v-44.4c0-15 12.2-27.2 27.2-27.2s27.2 12.2 27.2 27.2zM172.5 126.6v44.4h-54.5v-44.4c0-15 12.2-27.2 27.2-27.2 15.1 0 27.3 12.2 27.3 27.2zM129.1 119v44.4h-54.4v-44.4c0-15 12.2-27.2 27.2-27.2s27.2 12.1 27.2 27.2z"/></svg>

<?xml version="1.0" encoding="utf-8"?>
<!-- Generator: Adobe Illustrator 19.2.0, SVG Export Plug-In . SVG Version: 6.00 Build 0)  -->
<!DOCTYPE svg PUBLIC "-//W3C//DTD SVG 1.1//EN" "http://www.w3.org/Graphics/SVG/1.1/DTD/svg11.dtd">
<svg version="1.1" id="Layer_1" xmlns="http://www.w3.org/2000/svg" xmlns:xlink="http://www.w3.org/1999/xlink" x="0px" y="0px"
	 width="200px" height="200px" viewBox="0 0 200 200" style="enable-background:new 0 0 200 200;" xml:space="preserve">
<style type="text/css">
	.st0{fill:#FFFFFF;stroke:#8B85B5;stroke-width:4.0924;stroke-miterlimit:10;}
</style>
<g>
	<circle class="st0" cx="55.1" cy="67.8" r="31.6"/>
	<circle class="st0" cx="145.3" cy="67.8" r="31.6"/>
	<circle class="st0" cx="101.9" cy="60.1" r="31.6"/>
	<path class="st0" d="M82.3,126.6V171H27.9v-44.4c0-15,12.2-27.2,27.2-27.2S82.3,111.6,82.3,126.6z"/>
	<path class="st0" d="M172.5,126.6V171H118v-44.4c0-15,12.2-27.2,27.2-27.2C160.3,99.4,172.5,111.6,172.5,126.6z"/>
	<path class="st0" d="M129.1,119v44.4H74.7V119c0-15,12.2-27.2,27.2-27.2S129.1,103.9,129.1,119z"/>
</g>
<g>
</g>
<g>
</g>
<g>
</g>
<g>
</g>
<g>
</g>
<g>
</g>
<g>
</g>
<g>
</g>
<g>
</g>
<g>
</g>
<g>
</g>
<g>
</g>
<g>
</g>
<g>
</g>
<g>
</g>
</svg>
